!!!COM: Palestrina, Giovanni Perluigi da
!!!OPR: Missa Vestiva i colli
!!!OMD: Kyrie
!!!OTL: Christe
**kern	**kern	**kern	**kern
*Itenor	*Itenor	*Icalto	*Icant
!Tenor 2	!Tenor 1	!Altus	!Cantus
*clefGv2	*clefGv2	*clefG2	*clefG2
*k[]	*k[]	*k[]	*k[]
*A:aeo	*A:aeo	*A:aeo	*A:aeo
*M4/2	*M4/2	*M4/2	*M4/2
=30	=30	=30	=30
0r	0r	1a	0r
.	.	2cc	.
.	.	2b	.
=31	=31	=31	=31
0r	1d	1.a	0r
.	2f	.	.
.	2e	2g	.
=32	=32	=32	=32
0r	1.d	2f	1dd
.	.	2.b-	.
.	.	.	2ff
.	.	4a	.
.	2c	[2a	2ee
=33	=33	=33	=33
2r	1B-	2a]	1.dd
2d	.	2g	.
2f	1A	1a	.
2e	.	.	2cc
=34	=34	=34	=34
1.d	2r	2.f	2b-
.	2d	.	4a
.	.	4e	4g
.	2f	2d	1a
2c	[2e	2A	.
=35	=35	=35	=35
1B-	4e]	0r	4g
.	4d	.	4f
.	1d	.	4e
.	.	.	4d
1A	.	.	1e
.	2c	.	.
=36	=36	=36	=36
1d	1f	1a	2d
.	.	.	1a
1r	2.e	2cc	.
.	.	2b	2g
.	4d	.	.
=37	=37	=37	=37
1A	2e	1.a	2.cc
.	2f	.	.
.	.	.	4dd
2c	1e	.	4ee
.	.	.	4ff
2c	.	2g	[2ee
=38	=38	=38	=38
1d	1a	1f	4ee]
.	.	.	4dd
.	.	.	2dd
1A	2r	2e	2cc
.	2e	2cc	2ee
=39	=39	=39	=39
0r	2g	2b	4dd
.	.	.	4cc
.	2f	1a	4b
.	.	.	4a
.	[1e	.	1b
.	.	2g	.
=40	=40	=40	=40
1A	2e]	2.cc	1a
.	2f	.	.
.	.	4b	.
2c	2e	2a	1r
2B	2d	2g	.
=41	=41	=41	=41
4A	1e	1cc	2r
4B	.	.	.
4c	.	.	2ee
4d	.	.	.
2e	1r	2b	2gg
2f	.	2a	2ff
=42	=42	=42	=42
2g	0r	2b	1.ee
2a	.	1cc	.
2e	.	.	.
2g	.	[2b	2dd
=43	=43	=43	=43
1a	0r	4b]	2.cc
.	.	4a	.
.	.	1a	.
.	.	.	8b
.	.	.	8a
1e	.	.	1b
.	.	2g#	.
=44	=44	=44	=44
2.f	2r	[0a	1a
.	2d	.	.
4e	.	.	.
2d	2f	.	1r
2c	2e	.	.
=45	=45	=45	=45
2.f	1.d	1a]	2r
.	.	.	2dd
4g	.	.	.
1a	.	2r	2ff
.	2c#	2a	2ee
=46	=46	=46	=46
2r	1d	2b-	1.dd
2f	.	2a	.
2d	[1G	[1g	.
[2e	.	.	2cc
=47	=47	=47	=47
4e]	1G]	2g]	1b-
4d	.	.	.
1d	.	2f	.
.	1A	1e	1a
2c#	.	.	.
=48	=48	=48	=48
1d	2.f	4d	2r
.	.	4e	.
.	.	4f	2dd
.	4e	4g	.
1r	2d	4a	2ff
.	.	4b	.
.	2c	[2cc	2ee
=49	=49	=49	=49
1r	1g	2cc]	2dd
.	.	2b	4gg
.	.	.	4ff
1A	2r	1cc	4ee
.	.	.	4dd
.	[2e	.	2cc
=50	=50	=50	=50
2c	2e]	1r	2ee
2B	2g	.	1dd
[1A	2f	2r	.
.	4e	2a	2cc
.	4d	.	.
=51	=51	=51	=51
2A]	1e	2cc	2a
2G	.	2b	2b
1F	2A	1a	2.cc
.	[2a	.	.
.	.	.	4dd
=52	=52	=52	=52
2E	2a]	1b	1ee
2e	2g#	.	.
2c#	2a	2r	1r
2d	2f	2a	.
=53	=53	=53	=53
4A	1e	1cc	2r
4B	.	.	.
4c	.	.	2ee
4d	.	.	.
2e	1r	2b	2gg
2f	.	[2a	[2ff
=54	=54	=54	=54
1c	0r	2a]	2ff]
.	.	2g	1ee
1d	.	1f	.
.	.	.	2dd
=55	=55	=55	=55
1A	1r	2e	1cc
.	.	1a	.
1e	2r	.	1b
.	2e	2g#	.
=56	=56	=56	=56
2r	2.f	1a	0a
2d	.	.	.
.	4e	.	.
2f	2d	1r	.
2e	2c	.	.
=57	=57	=57	=57
1.d	1f	0a	2r
.	.	.	2dd
.	2d	.	2ff
2c	2e	.	[2ee
=58	=58	=58	=58
2B-	2f	1b-	2ee]
2G	2g	.	1dd
1A	1e	1a	.
.	.	.	2cc#
=59	=59	=59	=59
2.B-	2d	2g	[0dd
.	2d	2f	.
4A	.	.	.
2G	2b-	2g	.
2F#	2a	2a	.
=60	=60	=60	=60
0G	0g	0b-	1dd_
.	.	.	1dd_
=61	=61	=61	=61
0d	0f#	0a	0dd]
==	==	==	==
*-	*-	*-	*-
!!!CDT: 1525/^1526/-1594/2/2
!!!OCY: Italia
!!!AGN: Mass (Parody)
!!!AST: renaissance, vocal
!!!ASW: Madrigal 1566 (Palestrina)
!!!PWK: Masses, Book 9
!!!RNB: Cadence finals: D
!!!YOR: Le Opere Complete, v. 25, p. 54
!!!YOO: Rome, Italy: Fratelli Scalera
!!!END: 1992//
!!!EED: John Miller
!!!YEC: Copyright 2000, John Miller
!!!YEN: United States of America
!!!YEM: Rights to all derivative electronic formats reserved.
!!!YEM: Refer to licensing agreement for further details.
!!!YEM: This file must be accompanied by the licensing agreement.
!!!YEM: A copy of the licensing agreement may be found at http://www.music-cog.ohio-state.edu/HumdrumDatabases/Palestrina/license.txt
!!!EMD: converted to Humdrum by Bret Aarden
